X:1
T: Hartburn Village
N:
C:O'Carolan
S:Tune is "Constantine Maguire"
A:
O:
R:
M:4/4
K:G
I:speed 100
%W: A1
% voice 1 (1 lines, 45 notes)
K:G
M:4/4
L:1/16
d4 |c2 B2 A2 G2 d4 G4 |B2 c2 d4 d4 e2 f2 |g4 f2 e2 a4 g2 f2 |g4 A4 A4 d2 c2 |c2 B2 A2 G2 B4 d4 |c'4 b4 a4 g4 |f2 g2 f2 e2 d4 e2 f2 |g4 G4 G4 d4 |
%W: A2
% voice 1 (1 lines, 44 notes)
c2 B2 A2 G2 d4 G4 |B2 c2 d4 d4 e2 f2 |g4 f2 e2 a4 g2 f2 |g4 A4 A4 d2 c2 |c2 B2 A2 G2 B4 d4 |c'4 b4 a4 g4 |f2 g2 f2 e2 d4 e2 f2 |g4 G4 G4 d4 |
%W: B1
% voice 1 (1 lines, 40 notes)
d2 B2 d2 e2 d4 B4 |d2 B2 d2 e2 d4 B4 |c4 A4 A4 B4 |c4 A4 A4 d4 |B2 c2 d4 G4 d4 |F4 d4 E4 e4 |f2 g2 a4 e4 a4 |g2 f2 e2 f2 d4 d4 |
%W: B2
% voice 1 (1 lines, 36 notes)
e4 f4 g4 a4 |b4 g4 g4 a2 b2 |c'4 a4 a4 d'4 |c'2 b2 a2 b2 g8 |d2 e2 d2 c2 B4 d4 |g4 e4 c4 e4 |f4 g2 a2 d4 f4 |g4 G4 G4 ||
